public/icons/replaceImage.svg

<?xml version="1.0" encoding="utf-8"?><!-- Uploaded to: SVG Repo, www.svgrepo.com, Generator: SVG Repo Mixer Tools -->
<svg width="800px" height="800px" viewBox="0 0 24 24" fill="none" xmlns="http://www.w3.org/2000/svg">
<path d="M21.9998 12.6978C21.9983 14.1674 21.9871 15.4165 21.9036 16.4414C21.8067 17.6308 21.6081 18.6246 21.1636 19.45C20.9676 19.814 20.7267 20.1401 20.4334 20.4334C19.601 21.2657 18.5405 21.6428 17.1966 21.8235C15.8835 22 14.2007 22 12.0534 22H11.9466C9.79929 22 8.11646 22 6.80345 21.8235C5.45951 21.6428 4.39902 21.2657 3.56664 20.4334C2.82871 19.6954 2.44763 18.777 2.24498 17.6376C2.04591 16.5184 2.00949 15.1259 2.00192 13.3967C2 12.9569 2 12.4917 2 12.0009V11.9466C1.99999 9.79929 1.99998 8.11646 2.17651 6.80345C2.3572 5.45951 2.73426 4.39902 3.56664 3.56664C4.39902 2.73426 5.45951 2.3572 6.80345 2.17651C7.97111 2.01952 9.47346 2.00215 11.302 2.00024C11.6873 1.99983 12 2.31236 12 2.69767C12 3.08299 11.6872 3.3952 11.3019 3.39561C9.44749 3.39757 8.06751 3.41446 6.98937 3.55941C5.80016 3.7193 5.08321 4.02339 4.5533 4.5533C4.02339 5.08321 3.7193 5.80016 3.55941 6.98937C3.39683 8.19866 3.39535 9.7877 3.39535 12C3.39535 12.2702 3.39535 12.5314 3.39567 12.7844L4.32696 11.9696C5.17465 11.2278 6.45225 11.2704 7.24872 12.0668L11.2392 16.0573C11.8785 16.6966 12.8848 16.7837 13.6245 16.2639L13.9019 16.0689C14.9663 15.3209 16.4064 15.4076 17.3734 16.2779L20.0064 18.6476C20.2714 18.091 20.4288 17.3597 20.5128 16.3281C20.592 15.3561 20.6029 14.1755 20.6044 12.6979C20.6048 12.3126 20.917 12 21.3023 12C21.6876 12 22.0002 12.3125 21.9998 12.6978Z" fill="#1C274C"/>
<path fill-rule="evenodd" clip-rule="evenodd" d="M17.5 11C15.3787 11 14.318 11 13.659 10.341C13 9.68198 13 8.62132 13 6.5C13 4.37868 13 3.31802 13.659 2.65901C14.318 2 15.3787 2 17.5 2C19.6213 2 20.682 2 21.341 2.65901C22 3.31802 22 4.37868 22 6.5C22 8.62132 22 9.68198 21.341 10.341C20.682 11 19.6213 11 17.5 11ZM19.7121 4.28794C20.096 4.67187 20.096 5.29434 19.7121 5.67826L19.6542 5.7361C19.5984 5.7919 19.5205 5.81718 19.4428 5.80324C19.3939 5.79447 19.3225 5.77822 19.2372 5.74864C19.0668 5.68949 18.843 5.5778 18.6326 5.36742C18.4222 5.15704 18.3105 4.93324 18.2514 4.76276C18.2218 4.67751 18.2055 4.60607 18.1968 4.55721C18.1828 4.47953 18.2081 4.40158 18.2639 4.34578L18.3217 4.28794C18.7057 3.90402 19.3281 3.90402 19.7121 4.28794ZM17.35 8.0403C17.2057 8.18459 17.1336 8.25673 17.054 8.31878C16.9602 8.39197 16.8587 8.45472 16.7512 8.50591C16.6602 8.54932 16.5634 8.58158 16.3698 8.64611L15.349 8.98639C15.2537 9.01814 15.1487 8.99335 15.0777 8.92234C15.0067 8.85134 14.9819 8.74631 15.0136 8.65104L15.3539 7.63021C15.4184 7.43662 15.4507 7.33983 15.4941 7.24876C15.5453 7.14133 15.608 7.0398 15.6812 6.94596C15.7433 6.86642 15.8154 6.79427 15.9597 6.65L17.7585 4.85116C17.802 4.80767 17.8769 4.82757 17.8971 4.88568C17.9707 5.09801 18.109 5.37421 18.3674 5.63258C18.6258 5.89095 18.902 6.02926 19.1143 6.10292C19.1724 6.12308 19.1923 6.19799 19.1488 6.24148L17.35 8.0403Z" fill="#1C274C"/>
</svg>

<svg xmlns="http://www.w3.org/2000/svg" width="800" height="800" fill="none" viewBox="0 0 24 24"><path fill="#1c274c" d="M22 12.698c-.002 1.47-.013 2.718-.096 3.743-.097 1.19-.296 2.184-.74 3.009a4.2 4.2 0 0 1-.73.983c-.833.833-1.893 1.21-3.237 1.39C15.884 22 14.2 22 12.053 22h-.106c-2.148 0-3.83 0-5.144-.177-1.343-.18-2.404-.557-3.236-1.39-.738-.738-1.12-1.656-1.322-2.795-.2-1.12-.236-2.512-.243-4.241Q1.999 12.737 2 12v-.054c0-2.148 0-3.83.177-5.144.18-1.343.557-2.404 1.39-3.236s1.893-1.21 3.236-1.39c1.168-.157 2.67-.175 4.499-.177a.697.697 0 1 1 0 1.396c-1.855.002-3.234.018-4.313.163-1.189.16-1.906.464-2.436.994S3.72 5.8 3.56 6.99C3.397 8.2 3.395 9.788 3.395 12v.784l.932-.814a2.14 2.14 0 0 1 2.922.097l3.99 3.99a1.86 1.86 0 0 0 2.385.207l.278-.195a2.79 2.79 0 0 1 3.471.209l2.633 2.37c.265-.557.423-1.288.507-2.32.079-.972.09-2.152.091-3.63a.698.698 0 0 1 1.396 0"/><path fill="#1c274c" fill-rule="evenodd" d="M17.5 11c-2.121 0-3.182 0-3.841-.659S13 8.621 13 6.5s0-3.182.659-3.841S15.379 2 17.5 2s3.182 0 3.841.659S22 4.379 22 6.5s0 3.182-.659 3.841S19.621 11 17.5 11m2.212-6.712a.983.983 0 0 1 0 1.39l-.058.058a.24.24 0 0 1-.211.067 1.595 1.595 0 0 1-.81-.436 1.6 1.6 0 0 1-.436-.81.24.24 0 0 1 .067-.211l.058-.058a.983.983 0 0 1 1.39 0M17.35 8.04c-.144.145-.216.217-.296.279a1.6 1.6 0 0 1-.303.187c-.09.043-.188.076-.381.14l-1.021.34a.265.265 0 0 1-.335-.335l.34-1.02c.064-.194.097-.291.14-.382q.077-.163.187-.303c.062-.08.134-.152.279-.296l1.799-1.799c.043-.043.118-.023.138.035.074.212.212.488.47.747.259.258.535.396.747.47.058.02.078.095.035.138z" clip-rule="evenodd"/></svg>
